;FLAVOR:Marlin
;TIME:16177
;Filament used: 8.10655m
;Layer height: 0.15
;MINX:6.601
;MINY:2.98
;MINZ:0.3
;MAXX:94.36
;MAXY:117.018
;MAXZ:12
;Generated with Cura_SteamEngine 5.3.0
M82 ;absolute extrusion mode
;MachineType:ENTINA TINA2
;FilamentType:PLA
;InfillDensity:30
;Extruder0Temperature:200

;(**** start.gcode for tina2****)
M203 Z15
M104 S150
G28 Z
G28 X Y; Home extruder
G1 X55 Y55 F1000
G29
M107 ; Turn off fan
G90 ; Absolute positioning
M82 ; Extruder in absolute mode
M109 S210
G92 E0 ; Reset extruder position
G1 X90 Y6 Z0.27 F2000
G1 X20 Y6 Z0.27 E15 F1000
G92 E0 ; Reset extruder position
M203 Z5
G92 E0
G92 E0
G1 F1680 E-3
;LAYER_COUNT:79
;LAYER:0
M107
G0 F3600 X7.722 Y5.188 Z0.3
;TYPE:SKIRT
G1 F1680 E0
G1 F1560 X8.023 Y4.78 E0.02511
G1 X8.475 Y4.338 E0.05642
G1 X8.975 Y3.988 E0.08665
G1 X9.599 Y3.686 E0.12099
G1 X10.252 Y3.491 E0.15474
G1 X10.928 Y3.419 E0.18841
G1 X90.135 Y3.419 E4.11141
G1 X90.641 Y3.459 E4.13655
G1 X91.134 Y3.578 E4.16167
G1 X91.602 Y3.773 E4.18678
G1 X92.173 Y4.116 E4.21978
G1 X92.581 Y4.418 E4.24492
G1 X93.045 Y4.901 E4.27809
G1 X93.392 Y5.411 E4.30864
G1 X93.684 Y6.039 E4.34294
G1 X93.861 Y6.679 E4.37583
G1 X93.92 Y7.292 E4.40633
G1 X93.915 Y112.675 E9.62579
G1 X93.903 Y113.402 E9.66181
G1 X93.854 Y113.907 E9.68694
G1 X93.727 Y114.398 E9.71205
G1 X93.525 Y114.863 E9.73716
G1 X93.252 Y115.29 E9.76227
G1 X92.915 Y115.67 E9.78742
G1 X92.523 Y115.991 E9.81252
G1 X92.085 Y116.248 E9.83767
G1 X91.613 Y116.432 E9.86276
G1 X91.117 Y116.54 E9.8879
G1 X90.455 Y116.577 E9.92074
G1 X10.93 Y116.578 E13.85949
G1 X10.232 Y116.569 E13.89407
G1 X9.727 Y116.522 E13.91919
G1 X9.236 Y116.397 E13.94428
G1 X8.77 Y116.196 E13.96942
G1 X8.342 Y115.925 E13.99451
G1 X7.961 Y115.59 E14.01963
G1 X7.638 Y115.199 E14.04475
G1 X7.381 Y114.762 E14.06986
G1 X7.195 Y114.29 E14.09499
G1 X7.085 Y113.795 E14.1201
G1 X7.046 Y113.328 E14.14331
G1 X7.04 Y7.296 E19.39492
G1 X7.08 Y6.791 E19.42001
G1 X7.221 Y6.201 E19.45006
G1 X7.455 Y5.639 E19.48021
G1 X7.722 Y5.188 E19.50617
G0 F3600 X7.343 Y4.964
G1 F1560 X7.715 Y4.465 E19.53699
G1 X8.167 Y4.023 E19.5683
G1 X8.783 Y3.592 E19.60554
G1 X9.473 Y3.264 E19.64338
G1 X10.165 Y3.057 E19.67915
G1 X10.881 Y2.981 E19.71481
G1 X90.17 Y2.98 E23.64188
G1 X90.676 Y3.02 E23.66702
G1 X91.268 Y3.157 E23.69712
G1 X91.829 Y3.396 E23.72732
G1 X92.435 Y3.762 E23.76238
G1 X92.87 Y4.084 E23.78919
G1 X93.39 Y4.625 E23.82635
G1 X93.775 Y5.192 E23.8603
G1 X94.098 Y5.884 E23.89812
G1 X94.296 Y6.6 E23.93491
G1 X94.36 Y7.292 E23.96933
G1 X94.355 Y112.682 E29.18914
G1 X94.341 Y113.444 E29.22689
G1 X94.28 Y114.017 E29.25543
G1 X94.131 Y114.573 E29.28394
G1 X93.896 Y115.1 E29.31252
G1 X93.623 Y115.527 E29.33762
G1 X93.221 Y115.988 E29.36791
G1 X92.746 Y116.37 E29.3981
G1 X92.245 Y116.658 E29.42673
G1 X91.707 Y116.862 E29.45522
G1 X91.211 Y116.97 E29.48036
G1 X90.455 Y117.017 E29.51788
G1 X10.924 Y117.018 E33.45693
G1 X10.226 Y117.009 E33.49151
G1 X9.686 Y116.96 E33.51836
G1 X9.093 Y116.815 E33.5486
G1 X8.535 Y116.568 E33.57882
G1 X8.107 Y116.297 E33.60391
G1 X7.67 Y115.92 E33.6325
G1 X7.299 Y115.479 E33.66104
G1 X6.985 Y114.957 E33.69121
G1 X6.765 Y114.385 E33.72156
G1 X6.655 Y113.89 E33.74668
G1 X6.606 Y113.328 E33.77462
G1 X6.601 Y7.261 E39.02796
G1 X6.641 Y6.756 E39.05305
G1 X6.801 Y6.066 E39.08813
G1 X7.076 Y5.415 E39.12313
G1 X7.343 Y4.964 E39.14909
G1 F1680 E36.14909
;MESH:SD-1000-Top3D.stl
G0 F3600 X23.983 Y63.821
;TYPE:WALL-INNER
G1 F1680 E39.14909
G1 F1320 X23.076 Y63.704 E39.19438
G1 X22.236 Y63.353 E39.23947
G1 X21.535 Y62.807 E39.28348
G1 X20.981 Y62.095 E39.32816
G1 X20.632 Y61.256 E39.37317
G1 X20.515 Y60.358 E39.41802
G1 X20.63 Y59.482 E39.46178
G1 X20.978 Y58.625 E39.50759
G1 X21.535 Y57.909 E39.55252
G1 X22.247 Y57.359 E39.59708
G1 X23.072 Y57.014 E39.64137
G1 X23.984 Y56.894 E39.68693
G1 X24.88 Y57.011 E39.73169
G1 X25.714 Y57.356 E39.77639
G1 X26.424 Y57.903 E39.82078
G1 X26.976 Y58.618 E39.86552
G1 X27.329 Y59.46 E39.91074
G1 X27.444 Y60.366 E39.95597
G1 X27.324 Y61.268 E40.00104
G1 X26.98 Y62.09 E40.04517
G1 X26.421 Y62.817 E40.09059
G1 X25.709 Y63.362 E40.135
G1 X24.866 Y63.709 E40.18015
G1 X23.983 Y63.821 E40.22424
G1 F1680 E37.22424
G0 F3600 X76.983 Y63.823
G1 F1680 E40.22424
G1 F1320 X76.081 Y63.704 E40.2693
G1 X75.242 Y63.357 E40.31427
G1 X74.53 Y62.807 E40.35883
G1 X73.981 Y62.092 E40.40348
G1 X73.634 Y61.261 E40.44808
G1 X73.516 Y60.359 E40.49313
G1 X73.632 Y59.46 E40.53803
G1 X73.981 Y58.622 E40.58299
G1 X74.529 Y57.91 E40.62749
G1 X75.245 Y57.357 E40.6723
G1 X76.082 Y57.011 E40.71716
G1 X76.998 Y56.895 E40.76289
G1 X77.886 Y57.013 E40.80725
G1 X78.713 Y57.358 E40.85164
G1 X79.443 Y57.922 E40.89733
G1 X79.977 Y58.626 E40.94109
G1 X80.329 Y59.461 E40.98597
G1 X80.44 Y60.358 E41.03074
G1 X80.33 Y61.257 E41.07559
G1 X79.989 Y62.073 E41.1194
G1 X79.443 Y62.794 E41.16419
G1 X78.705 Y63.363 E41.21035
G1 X77.887 Y63.704 E41.25424
G1 X76.983 Y63.823 E41.2994
G1 F1680 E38.2994
G0 F3600 X76.485 Y26.719
G1 F1680 E41.2994
G1 F1320 X75.763 Y26.63 E41.33543
G1 X75.096 Y26.354 E41.37118
G1 X74.528 Y25.916 E41.40671
G1 X74.089 Y25.347 E41.4423
G1 X73.813 Y24.688 E41.47769
G1 X73.716 Y23.951 E41.5145
G1 X73.808 Y23.248 E41.54962
G1 X74.091 Y22.566 E41.58619
G1 X74.518 Y22.01 E41.62091
G1 X75.087 Y21.571 E41.65651
G1 X75.764 Y21.288 E41.69285
G1 X76.479 Y21.193 E41.72857
G1 X77.201 Y21.288 E41.76464
G1 X77.895 Y21.584 E41.80201
G1 X78.449 Y22.014 E41.83674
G1 X78.876 Y22.586 E41.8721
G1 X79.156 Y23.247 E41.90765
G1 X79.241 Y23.959 E41.94317
G1 X79.155 Y24.671 E41.97869
G1 X78.89 Y25.311 E42.013
G1 X78.446 Y25.905 E42.04973
G1 X77.892 Y26.336 E42.08449
G1 X77.186 Y26.633 E42.12243
G1 X76.485 Y26.719 E42.15741
G1 F1680 E39.15741
G0 F3600 X90.035 Y7.34
G1 F1680 E42.15741
G1 F1320 X89.98 Y7.304 E42.16066
G1 X10.962 Y7.303 E46.0743
G1 X10.925 Y7.355 E46.07747
G1 X10.925 Y112.698 E51.29495
G1 X90.035 Y112.698 E55.21315
G1 X90.035 Y7.34 E60.43137
G1 F1680 E57.43137
G0 F3600 X76.483 Y26.279
;TYPE:WALL-OUTER
G1 F1680 E60.43137
G1 F1320 X75.89 Y26.204 E60.46097
G1 X75.323 Y25.97 E60.49135
G1 X74.848 Y25.607 E60.52096
G1 X74.477 Y25.129 E60.55093
G1 X74.235 Y24.546 E60.5822
G1 X74.161 Y23.978 E60.61057
G1 X74.234 Y23.374 E60.6407
G1 X74.466 Y22.808 E60.67099
G1 X74.846 Y22.311 E60.70198
G1 X75.31 Y21.955 E60.73095
G1 X75.879 Y21.714 E60.76155
G1 X76.48 Y21.636 E60.79157
G1 X77.082 Y21.717 E60.82165
G1 X77.652 Y21.957 E60.85229
G1 X78.133 Y22.327 E60.88234
G1 X78.497 Y22.805 E60.9121
G1 X78.727 Y23.361 E60.9419
G1 X78.801 Y23.959 E60.97174
G1 X78.725 Y24.56 E61.00175
G1 X78.497 Y25.11 E61.03124
G1 X78.129 Y25.591 E61.06123
G1 X77.649 Y25.962 E61.09128
G1 X77.057 Y26.207 E61.12301
G1 X76.483 Y26.279 E61.15166
G1 F1680 E58.15166
G0 F3600 X76.978 Y63.378
G1 F1680 E61.15166
G1 F1320 X76.205 Y63.278 E61.19027
G1 X75.466 Y62.974 E61.22985
G1 X74.852 Y62.501 E61.26823
G1 X74.367 Y61.872 E61.30757
G1 X74.059 Y61.129 E61.34741
G1 X73.958 Y60.358 E61.38592
G1 X74.061 Y59.575 E61.42504
G1 X74.361 Y58.854 E61.46371
G1 X74.836 Y58.231 E61.50252
G1 X75.461 Y57.747 E61.54167
G1 X76.213 Y57.437 E61.58195
G1 X76.978 Y57.338 E61.62016
G1 X77.753 Y57.438 E61.65886
G1 X78.498 Y57.746 E61.69879
G1 X79.116 Y58.221 E61.7374
G1 X79.596 Y58.847 E61.77647
G1 X79.9 Y59.575 E61.81554
G1 X80 Y60.358 E61.85464
G1 X79.9 Y61.144 E61.89388
G1 X79.595 Y61.87 E61.93288
G1 X79.116 Y62.495 E61.97188
G1 X78.499 Y62.969 E62.01042
G1 X77.771 Y63.275 E62.04953
G1 X76.978 Y63.378 E62.08914
G1 F1680 E59.08914
G0 F3600 X90.475 Y113.138
G1 F1680 E62.08914
G1 F1320 X90.481 Y7.305 E67.33089
G1 X90.412 Y7.113 E67.34099
G1 X90.317 Y6.995 E67.34849
G1 X90.053 Y6.864 E67.36309
G1 X10.93 Y6.858 E71.28193
G1 X10.735 Y6.927 E71.29218
G1 X10.617 Y7.021 E71.29965
G1 X10.486 Y7.284 E71.3142
G1 X10.485 Y113.138 E76.55699
G1 X90.475 Y113.138 E80.51878
G1 F1680 E77.51878
G0 F3600 X23.996 Y63.377
G1 F1680 E80.51878
G1 F1320 X23.208 Y63.279 E80.55811
G1 X22.469 Y62.976 E80.59767
G1 X21.845 Y62.495 E80.63669
G1 X21.366 Y61.87 E80.67569
G1 X21.06 Y61.14 E80.71489
G1 X20.958 Y60.358 E80.75395
G1 X21.061 Y59.575 E80.79307
G1 X21.365 Y58.847 E80.83214
G1 X21.845 Y58.221 E80.87121
G1 X22.462 Y57.746 E80.90978
G1 X23.208 Y57.438 E80.94975
G1 X23.98 Y57.336 E80.98832
G1 X24.756 Y57.439 E81.02709
G1 X25.492 Y57.74 E81.06647
G1 X26.109 Y58.215 E81.10504
G1 X26.588 Y58.834 E81.1438
G1 X26.903 Y59.596 E81.18464
G1 X26.999 Y60.338 E81.2217
G1 X26.902 Y61.13 E81.26122
G1 X26.599 Y61.863 E81.3005
G1 X26.125 Y62.485 E81.33924
G1 X25.494 Y62.972 E81.37871
G1 X24.769 Y63.275 E81.41763
G1 X23.996 Y63.377 E81.45625
G1 F1680 E78.45625
G0 F3600 X11.692 Y112.497
;TYPE:SKIN
G1 F1680 E81.45625
G1 F1200 X11.124 Y111.93 E81.496
G0 F3600 X11.124 Y111.307
G1 F1200 X12.314 Y112.497 E81.57935
G0 F3600 X12.936 Y112.497
G1 F1200 X11.124 Y110.685 E81.70627
G0 F3600 X11.124 Y110.063
G1 F1200 X13.558 Y112.497 E81.87676
G0 F3600 X14.181 Y112.497
G1 F1200 X11.124 Y109.441 E82.09085
G0 F3600 X11.124 Y108.818
G1 F1200 X14.803 Y112.497 E82.34854
G0 F3600 X15.425 Y112.497
G1 F1200 X11.124 Y108.196 E82.6498
G0 F3600 X11.124 Y107.574
G1 F1200 X16.047 Y112.497 E82.99462
G0 F3600 X16.67 Y112.497
G1 F1200 X11.124 Y106.952 E83.38305
G0 F3600 X11.124 Y106.329
G1 F1200 X17.292 Y112.497 E83.81508
G0 F3600 X17.914 Y112.497
G1 F1200 X11.124 Y105.707 E84.29068
G0 F3600 X11.124 Y105.085
G1 F1200 X18.536 Y112.497 E84.80984
G0 F3600 X19.159 Y112.497
G1 F1200 X11.124 Y104.463 E85.37261
G0 F3600 X11.124 Y103.84
G1 F1200 X19.781 Y112.497 E85.97898
G0 F3600 X20.403 Y112.497
G1 F1200 X11.124 Y103.218 E86.62892
G0 F3600 X11.124 Y102.596
G1 F1200 X21.025 Y112.497 E87.32242
G0 F3600 X21.648 Y112.497
G1 F1200 X11.124 Y101.973 E88.05956
G0 F3600 X11.124 Y101.351
G1 F1200 X22.27 Y112.497 E88.84027
G0 F3600 X22.892 Y112.497
G1 F1200 X11.124 Y100.729 E89.66455
G0 F3600 X11.124 Y100.107
G1 F1200 X23.514 Y112.497 E90.53239
G0 F3600 X24.137 Y112.497
G1 F1200 X11.124 Y99.484 E91.44387
G0 F3600 X11.124 Y98.862
G1 F1200 X24.759 Y112.497 E92.39892
G0 F3600 X25.381 Y112.497
G1 F1200 X11.124 Y98.24 E93.39754
G0 F3600 X11.124 Y97.618
G1 F1200 X26.003 Y112.497 E94.43972
G0 F3600 X26.626 Y112.497
G1 F1200 X11.124 Y96.995 E95.52554
G0 F3600 X11.124 Y96.373
G1 F1200 X27.248 Y112.497 E96.65493
G0 F3600 X27.87 Y112.497
G1 F1200 X11.124 Y95.751 E97.82788
G0 F3600 X11.124 Y95.129
G1 F1200 X28.492 Y112.497 E99.04441
G0 F3600 X29.115 Y112.497
G1 F1200 X11.124 Y94.506 E100.30457
G0 F3600 X11.124 Y93.884
G1 F1200 X29.737 Y112.497 E101.60829
G0 F3600 X30.359 Y112.497
G1 F1200 X11.124 Y93.262 E102.95559
G0 F3600 X11.124 Y92.64
G1 F1200 X30.981 Y112.497 E104.34645
G0 F3600 X31.604 Y112.497
G1 F1200 X11.124 Y92.017 E105.78095
G0 F3600 X11.124 Y91.395
G1 F1200 X32.226 Y112.497 E107.25901
G0 F3600 X32.848 Y112.497
G1 F1200 X11.124 Y90.773 E108.78064
G0 F3600 X11.124 Y90.151
G1 F1200 X33.47 Y112.497 E110.34584
G0 F3600 X34.093 Y112.497
G1 F1200 X11.124 Y89.528 E111.95468
G0 F3600 X11.124 Y88.906
G1 F1200 X34.715 Y112.497 E113.60709
G0 F3600 X35.337 Y112.497
G1 F1200 X11.124 Y88.284 E115.30306
G0 F3600 X11.124 Y87.662
G1 F1200 X35.959 Y112.497 E117.0426
G0 F3600 X36.582 Y112.497
G1 F1200 X11.124 Y87.039 E118.82578
G0 F3600 X11.124 Y86.417
G1 F1200 X37.204 Y112.497 E120.65252
G0 F3600 X37.826 Y112.497
G1 F1200 X11.124 Y85.795 E122.52283
G0 F3600 X11.124 Y85.173
G1 F1200 X38.448 Y112.497 E124.43671
G0 F3600 X39.071 Y112.497
G1 F1200 X11.124 Y84.55 E126.39423
G0 F3600 X11.124 Y83.928
G1 F1200 X39.693 Y112.497 E128.39531
G0 F3600 X40.315 Y112.497
G1 F1200 X11.124 Y83.306 E130.43996
G0 F3600 X11.124 Y82.684
G1 F1200 X40.937 Y112.497 E132.52818
G0 F3600 X41.56 Y112.497
G1 F1200 X11.124 Y82.061 E134.66003
G0 F3600 X11.124 Y81.439
G1 F1200 X42.182 Y112.497 E136.83546
G0 F3600 X42.804 Y112.497
G1 F1200 X11.124 Y80.817 E139.05445
G0 F3600 X11.124 Y80.195
G1 F1200 X43.426 Y112.497 E141.317
G0 F3600 X44.049 Y112.497
G1 F1200 X11.124 Y79.572 E143.6232
G0 F3600 X11.124 Y78.95
G1 F1200 X44.671 Y112.497 E145.97296
G0 F3600 X45.293 Y112.497
G1 F1200 X11.124 Y78.328 E148.36629
G0 F3600 X11.124 Y77.706
G1 F1200 X45.915 Y112.497 E150.80319
G0 F3600 X46.538 Y112.497
G1 F1200 X11.124 Y77.083 E153.28372
G0 F3600 X11.124 Y76.461
G1 F1200 X47.16 Y112.497 E155.80782
G0 F3600 X47.782 Y112.497
G1 F1200 X11.124 Y75.839 E158.37549
G0 F3600 X11.124 Y75.217
G1 F1200 X48.404 Y112.497 E160.98673
G0 F3600 X49.027 Y112.497
G1 F1200 X11.124 Y74.594 E163.6416
G0 F3600 X11.124 Y73.972
G1 F1200 X49.649 Y112.497 E166.34004
G0 F3600 X50.271 Y112.497
G1 F1200 X11.124 Y73.35 E169.08205
G0 F3600 X11.124 Y72.728
G1 F1200 X50.894 Y112.497 E171.86766
G0 F3600 X51.516 Y112.497
G1 F1200 X11.124 Y72.105 E174.69687
G0 F3600 X11.124 Y71.483
G1 F1200 X52.138 Y112.497 E177.56965
G0 F3600 X52.76 Y112.497
G1 F1200 X11.124 Y70.861 E180.48599
G0 F3600 X11.124 Y70.239
G1 F1200 X53.383 Y112.497 E183.44594
G0 F3600 X54.005 Y112.497
G1 F1200 X11.124 Y69.616 E186.44949
G0 F3600 X11.124 Y68.994
G1 F1200 X54.627 Y112.497 E189.49661
G0 F3600 X55.249 Y112.497
G1 F1200 X11.124 Y68.372 E192.5873
G0 F3600 X11.124 Y67.75
G1 F1200 X55.872 Y112.497 E195.72159
G0 F3600 X56.494 Y112.497
G1 F1200 X11.124 Y67.127 E198.89948
G0 F3600 X11.124 Y66.505
G1 F1200 X57.116 Y112.497 E202.12094
G0 F3600 X57.738 Y112.497
G1 F1200 X11.124 Y65.883 E205.38596
G0 F3600 X11.124 Y65.261
G1 F1200 X58.361 Y112.497 E208.69459
G0 F3600 X58.983 Y112.497
G1 F1200 X11.124 Y64.638 E212.04682
G0 F3600 X11.124 Y64.016
G1 F1200 X59.605 Y112.497 E215.44262
G0 F3600 X60.227 Y112.497
G1 F1200 X11.124 Y63.394 E218.88198
G0 F3600 X11.124 Y62.771
G1 F1200 X60.85 Y112.497 E222.36498
G0 F3600 X61.472 Y112.497
G1 F1200 X11.124 Y62.149 E225.89155
G0 F3600 X11.124 Y61.527
G1 F1200 X62.094 Y112.497 E229.46169
G0 F3600 X62.716 Y112.497
G1 F1200 X11.124 Y60.905 E233.07539
G0 F3600 X11.124 Y60.282
G1 F1200 X63.339 Y112.497 E236.73273
G0 F3600 X63.961 Y112.497
G1 F1200 X11.124 Y59.66 E240.43364
G0 F3600 X11.124 Y59.038
G1 F1200 X64.583 Y112.497 E244.17812
G0 F3600 X65.205 Y112.497
G1 F1200 X11.124 Y58.416 E247.96616
G0 F3600 X11.124 Y57.793
G1 F1200 X65.828 Y112.497 E251.79784
G0 F3600 X66.45 Y112.497
G1 F1200 X11.124 Y57.171 E255.67309
G0 F3600 X11.124 Y56.549
G1 F1200 X67.072 Y112.497 E259.5919
G0 F3600 X67.694 Y112.497
G1 F1200 X11.124 Y55.927 E263.55428
G0 F3600 X11.124 Y55.304
G1 F1200 X68.317 Y112.497 E267.5603
G0 F3600 X68.939 Y112.497
G1 F1200 X11.124 Y54.682 E271.60989
G0 F3600 X11.124 Y54.06
G1 F1200 X69.561 Y112.497 E275.70304
G0 F3600 X70.183 Y112.497
G1 F1200 X11.124 Y53.438 E279.83976
G0 F3600 X11.124 Y52.815
G1 F1200 X70.806 Y112.497 E284.02012
G0 F3600 X71.428 Y112.497
G1 F1200 X22.691 Y63.759 E287.43389
G1 F1680 E284.43389
G0 F3600 X23.515 Y63.962
G1 F1680 E287.43389
G1 F1200 X72.05 Y112.497 E290.83346
G0 F3600 X72.672 Y112.497
G1 F1200 X24.173 Y63.998 E294.23052
G0 F3600 X24.726 Y63.928
G1 F1200 X73.295 Y112.497 E297.63248
G0 F3600 X73.917 Y112.497
G1 F1200 X25.206 Y63.785 E301.04443
G0 F3600 X25.646 Y63.603
G1 F1200 X74.539 Y112.497 E304.46912
G0 F3600 X75.161 Y112.497
G1 F1200 X26.031 Y63.366 E307.91041
G0 F3600 X26.381 Y63.094
G1 F1200 X75.784 Y112.497 E311.37078
G0 F3600 X76.406 Y112.497
G1 F1200 X26.696 Y62.787 E314.85266
G0 F3600 X26.965 Y62.433
G1 F1200 X77.028 Y112.497 E318.35931
G0 F3600 X77.65 Y112.497
G1 F1200 X27.21 Y62.057 E321.89232
G0 F3600 X27.392 Y61.616
G1 F1200 X78.273 Y112.497 E325.45622
G0 F3600 X78.895 Y112.497
G1 F1200 X27.543 Y61.145 E329.05311
G0 F3600 X27.615 Y60.594
G1 F1200 X79.517 Y112.497 E332.68857
G0 F3600 X80.139 Y112.497
G1 F1200 X27.592 Y59.949 E336.3692
