;FLAVOR:Marlin
;TIME:18830
;Filament used: 10.3056m
;Layer height: 0.15
;MINX:6.04
;MINY:4.147
;MINZ:0.3
;MAXX:93.793
;MAXY:118.196
;MAXZ:10.5
;Generated with Cura_SteamEngine 5.3.0
M82 ;absolute extrusion mode
;MachineType:ENTINA TINA2
;FilamentType:PLA
;InfillDensity:30
;Extruder0Temperature:200

;(**** start.gcode for tina2****)
M203 Z15
M104 S150
G28 Z
G28 X Y; Home extruder
G1 X55 Y55 F1000
G29
M107 ; Turn off fan
G90 ; Absolute positioning
M82 ; Extruder in absolute mode
M109 S210
G92 E0 ; Reset extruder position
G1 X90 Y6 Z0.27 F2000
G1 X20 Y6 Z0.27 E15 F1000
G92 E0 ; Reset extruder position
M203 Z5
G92 E0
G92 E0
G1 F1680 E-3
;LAYER_COUNT:69
;LAYER:0
M107
G0 F3600 X7.291 Y6.192 Z0.3
;TYPE:SKIRT
G1 F1680 E0
G1 F1560 X7.735 Y5.701 E0.03279
G1 X8.118 Y5.368 E0.05792
G1 X8.549 Y5.1 E0.08306
G1 X9.192 Y4.827 E0.11766
G1 X10.018 Y4.625 E0.15978
G1 X11.316 Y4.601 E0.22407
G1 X88.047 Y4.601 E4.02445
G1 X89.372 Y4.587 E4.09007
G1 X89.964 Y4.637 E4.1195
G1 X90.639 Y4.815 E4.15407
G1 X91.111 Y5.002 E4.17922
G1 X91.705 Y5.355 E4.21344
G1 X92.112 Y5.658 E4.23857
G1 X92.467 Y6.021 E4.26372
G1 X92.76 Y6.435 E4.28884
G1 X93.1 Y7.151 E4.3281
G1 X93.295 Y7.856 E4.36433
G1 X93.353 Y8.466 E4.39468
G1 X93.35 Y113.853 E9.61434
G1 X93.338 Y114.58 E9.65035
G1 X93.289 Y115.085 E9.67548
G1 X93.162 Y115.576 E9.7006
G1 X92.96 Y116.041 E9.72571
G1 X92.687 Y116.468 E9.75081
G1 X92.35 Y116.848 E9.77596
G1 X91.958 Y117.169 E9.80106
G1 X91.52 Y117.426 E9.82621
G1 X91.048 Y117.61 E9.8513
G1 X90.552 Y117.718 E9.87644
G1 X89.89 Y117.755 E9.90928
G1 X10.365 Y117.756 E13.84804
G1 X9.667 Y117.747 E13.88261
G1 X9.162 Y117.7 E13.90773
G1 X8.671 Y117.575 E13.93282
G1 X8.205 Y117.374 E13.95796
G1 X7.777 Y117.103 E13.98305
G1 X7.396 Y116.768 E14.00818
G1 X7.073 Y116.377 E14.0333
G1 X6.816 Y115.94 E14.05841
G1 X6.63 Y115.468 E14.08353
G1 X6.52 Y114.973 E14.10865
G1 X6.481 Y114.506 E14.13186
G1 X6.48 Y9.168 E19.34909
G1 X6.49 Y8.521 E19.38114
G1 X6.538 Y8.016 E19.40626
G1 X6.723 Y7.299 E19.44294
G1 X7.018 Y6.62 E19.47961
G1 X7.291 Y6.192 E19.50475
G0 F3600 X6.937 Y5.928
G1 F1560 X7.446 Y5.369 E19.54219
G1 X7.829 Y5.036 E19.56733
G1 X8.317 Y4.726 E19.59596
G1 X9.05 Y4.409 E19.63552
G1 X9.963 Y4.186 E19.68207
G1 X11.308 Y4.161 E19.74869
G1 X88.042 Y4.161 E23.54921
G1 X89.367 Y4.147 E23.61484
G1 X90.039 Y4.202 E23.64824
G1 X90.801 Y4.406 E23.68731
G1 X91.336 Y4.624 E23.71592
G1 X91.968 Y5.002 E23.75239
G1 X92.427 Y5.35 E23.78092
G1 X92.782 Y5.713 E23.80607
G1 X93.14 Y6.21 E23.83641
G1 X93.514 Y6.998 E23.87961
G1 X93.73 Y7.777 E23.91965
G1 X93.793 Y8.466 E23.95391
G1 X93.79 Y113.86 E29.17392
G1 X93.776 Y114.622 E29.21167
G1 X93.715 Y115.195 E29.24021
G1 X93.566 Y115.751 E29.26872
G1 X93.331 Y116.278 E29.2973
G1 X93.058 Y116.705 E29.3224
G1 X92.656 Y117.166 E29.35269
G1 X92.181 Y117.548 E29.38288
G1 X91.68 Y117.836 E29.4115
G1 X91.142 Y118.04 E29.44
G1 X90.646 Y118.148 E29.46514
G1 X89.89 Y118.195 E29.50266
G1 X10.359 Y118.196 E33.44171
G1 X9.661 Y118.187 E33.47628
G1 X9.121 Y118.138 E33.50314
G1 X8.528 Y117.993 E33.53338
G1 X7.97 Y117.746 E33.5636
G1 X7.542 Y117.475 E33.58869
G1 X7.105 Y117.098 E33.61727
G1 X6.734 Y116.657 E33.64582
G1 X6.42 Y116.135 E33.67599
G1 X6.2 Y115.563 E33.70634
G1 X6.09 Y115.068 E33.73146
G1 X6.041 Y114.506 E33.7594
G1 X6.04 Y9.161 E38.97698
G1 X6.052 Y8.479 E39.01076
G1 X6.112 Y7.906 E39.0393
G1 X6.319 Y7.124 E39.07936
G1 X6.614 Y6.445 E39.11603
G1 X6.937 Y5.928 E39.14622
G1 F1680 E36.14622
;MESH:SD-1000-Bottom3D.stl
G0 F3600 X89.47 Y8.543
;TYPE:WALL-INNER
G1 F1680 E39.14622
G1 F1320 X89.42 Y8.482 E39.15013
G1 X10.523 Y8.481 E43.05778
G1 X10.409 Y8.519 E43.06373
G1 X10.36 Y8.652 E43.07075
G1 X10.36 Y113.876 E48.28233
G1 X89.47 Y113.876 E52.20053
G1 X89.47 Y8.543 E57.41752
G1 F1680 E54.41752
G0 F3600 X89.91 Y114.316
;TYPE:WALL-OUTER
G1 F1680 E57.41752
G1 F1320 X89.916 Y8.484 E62.65922
G1 X89.847 Y8.29 E62.66942
G1 X89.752 Y8.173 E62.67688
G1 X89.491 Y8.042 E62.69135
G1 X10.453 Y8.041 E66.60598
G1 X10.143 Y8.144 E66.62216
G1 X10.04 Y8.248 E66.62941
G1 X9.92 Y8.574 E66.64661
G1 X9.92 Y114.316 E71.88386
G1 X89.91 Y114.316 E75.84564
G1 F1680 E72.84564
G0 F3600 X11.003 Y113.675
;TYPE:SKIN
G1 F1680 E75.84564
G1 F1200 X10.559 Y113.231 E75.87674
G0 F3600 X10.559 Y112.608
G1 F1200 X11.625 Y113.675 E75.95144
G0 F3600 X12.247 Y113.675
G1 F1200 X10.559 Y111.986 E76.06971
G0 F3600 X10.559 Y111.364
G1 F1200 X12.87 Y113.675 E76.23158
G0 F3600 X13.492 Y113.675
G1 F1200 X10.559 Y110.742 E76.43702
G0 F3600 X10.559 Y110.119
G1 F1200 X14.114 Y113.675 E76.68606
G0 F3600 X14.736 Y113.675
G1 F1200 X10.559 Y109.497 E76.97867
G0 F3600 X10.559 Y108.875
G1 F1200 X15.359 Y113.675 E77.31488
G0 F3600 X15.981 Y113.675
G1 F1200 X10.559 Y108.253 E77.69466
G0 F3600 X10.559 Y107.63
G1 F1200 X16.603 Y113.675 E78.11804
G0 F3600 X17.225 Y113.675
G1 F1200 X10.559 Y107.008 E78.58499
G0 F3600 X10.559 Y106.386
G1 F1200 X17.848 Y113.675 E79.09554
G0 F3600 X18.47 Y113.675
G1 F1200 X10.559 Y105.764 E79.64965
G0 F3600 X10.559 Y105.141
G1 F1200 X19.092 Y113.675 E80.24737
G0 F3600 X19.714 Y113.675
G1 F1200 X10.559 Y104.519 E80.88866
G0 F3600 X10.559 Y103.897
G1 F1200 X20.337 Y113.675 E81.57355
G0 F3600 X20.959 Y113.675
G1 F1200 X10.559 Y103.275 E82.30201
G0 F3600 X10.559 Y102.652
G1 F1200 X21.581 Y113.675 E83.07406
G0 F3600 X22.203 Y113.675
G1 F1200 X10.559 Y102.03 E83.88969
G0 F3600 X10.559 Y101.408
G1 F1200 X22.826 Y113.675 E84.74892
G0 F3600 X23.448 Y113.675
G1 F1200 X10.559 Y100.786 E85.65171
G0 F3600 X10.559 Y100.163
G1 F1200 X24.07 Y113.675 E86.59811
G0 F3600 X24.692 Y113.675
G1 F1200 X10.559 Y99.541 E87.58808
G0 F3600 X10.559 Y98.919
G1 F1200 X25.315 Y113.675 E88.62164
G0 F3600 X25.937 Y113.675
G1 F1200 X10.559 Y98.297 E89.69878
G0 F3600 X10.559 Y97.674
G1 F1200 X26.559 Y113.675 E90.81952
G0 F3600 X27.181 Y113.675
G1 F1200 X10.559 Y97.052 E91.98382
G0 F3600 X10.559 Y96.43
G1 F1200 X27.804 Y113.675 E93.19173
G0 F3600 X28.426 Y113.675
G1 F1200 X10.559 Y95.808 E94.4432
G0 F3600 X10.559 Y95.185
G1 F1200 X29.048 Y113.675 E95.73828
G0 F3600 X29.67 Y113.675
G1 F1200 X10.559 Y94.563 E97.07692
G0 F3600 X10.559 Y93.941
G1 F1200 X30.293 Y113.675 E98.45917
G0 F3600 X30.915 Y113.675
G1 F1200 X10.559 Y93.319 E99.88498
G0 F3600 X10.559 Y92.696
G1 F1200 X31.537 Y113.675 E101.35439
G0 F3600 X32.159 Y113.675
G1 F1200 X10.559 Y92.074 E102.86738
G0 F3600 X10.559 Y91.452
G1 F1200 X32.782 Y113.675 E104.42396
G0 F3600 X33.404 Y113.675
G1 F1200 X10.559 Y90.829 E106.02415
G0 F3600 X10.559 Y90.207
G1 F1200 X34.026 Y113.675 E107.6679
G0 F3600 X34.648 Y113.675
G1 F1200 X10.559 Y89.585 E109.35523
G0 F3600 X10.559 Y88.963
G1 F1200 X35.271 Y113.675 E111.08615
G0 F3600 X35.893 Y113.675
G1 F1200 X10.559 Y88.34 E112.86068
G0 F3600 X10.559 Y87.718
G1 F1200 X36.515 Y113.675 E114.67877
G0 F3600 X37.137 Y113.675
G1 F1200 X10.559 Y87.096 E116.54043
G0 F3600 X10.559 Y86.474
G1 F1200 X37.76 Y113.675 E118.4457
G0 F3600 X38.382 Y113.675
G1 F1200 X10.559 Y85.851 E120.39456
G0 F3600 X10.559 Y85.229
G1 F1200 X39.004 Y113.675 E122.38699
G0 F3600 X39.626 Y113.675
G1 F1200 X10.559 Y84.607 E124.42299
G0 F3600 X10.559 Y83.985
G1 F1200 X40.249 Y113.675 E126.5026
G0 F3600 X40.871 Y113.675
G1 F1200 X10.559 Y83.362 E128.6258
G0 F3600 X10.559 Y82.74
G1 F1200 X41.493 Y113.675 E130.79257
G0 F3600 X42.115 Y113.675
G1 F1200 X10.559 Y82.118 E133.00291
G0 F3600 X10.559 Y81.496
G1 F1200 X42.738 Y113.675 E135.25686
G0 F3600 X43.36 Y113.675
G1 F1200 X10.559 Y80.873 E137.5544
G0 F3600 X10.559 Y80.251
G1 F1200 X43.982 Y113.675 E139.89551
G0 F3600 X44.605 Y113.675
G1 F1200 X10.559 Y79.629 E142.28022
G0 F3600 X10.559 Y79.007
G1 F1200 X45.227 Y113.675 E144.70851
G0 F3600 X45.849 Y113.675
G1 F1200 X10.559 Y78.384 E147.18039
G0 F3600 X10.559 Y77.762
G1 F1200 X46.471 Y113.675 E149.69584
G0 F3600 X47.094 Y113.675
G1 F1200 X10.559 Y77.14 E152.25489
G0 F3600 X10.559 Y76.518
G1 F1200 X47.716 Y113.675 E154.85751
G0 F3600 X48.338 Y113.675
G1 F1200 X10.559 Y75.895 E157.50374
G0 F3600 X10.559 Y75.273
G1 F1200 X48.96 Y113.675 E160.19353
G0 F3600 X49.583 Y113.675
G1 F1200 X10.559 Y74.651 E162.92692
G0 F3600 X10.559 Y74.029
G1 F1200 X50.205 Y113.675 E165.70388
G0 F3600 X50.827 Y113.675
G1 F1200 X10.559 Y73.406 E168.52444
G0 F3600 X10.559 Y72.784
G1 F1200 X51.449 Y113.675 E171.38857
G0 F3600 X52.072 Y113.675
G1 F1200 X10.559 Y72.162 E174.2963
G0 F3600 X10.559 Y71.54
G1 F1200 X52.694 Y113.675 E177.2476
G0 F3600 X53.316 Y113.675
G1 F1200 X10.559 Y70.917 E180.2425
G0 F3600 X10.559 Y70.295
G1 F1200 X53.938 Y113.675 E183.28097
G0 F3600 X54.561 Y113.675
G1 F1200 X10.559 Y69.673 E186.36304
G0 F3600 X10.559 Y69.051
G1 F1200 X55.183 Y113.675 E189.48868
G0 F3600 X55.805 Y113.675
G1 F1200 X10.559 Y68.428 E192.65792
G0 F3600 X10.559 Y67.806
G1 F1200 X56.427 Y113.675 E195.87072
G0 F3600 X57.05 Y113.675
G1 F1200 X10.559 Y67.184 E199.12713
G0 F3600 X10.559 Y66.562
G1 F1200 X57.672 Y113.675 E202.42711
G0 F3600 X58.294 Y113.675
G1 F1200 X10.559 Y65.939 E205.77069
G0 F3600 X10.559 Y65.317
G1 F1200 X58.916 Y113.675 E209.15784
G0 F3600 X59.539 Y113.675
G1 F1200 X10.559 Y64.695 E212.58859
G0 F3600 X10.559 Y64.073
G1 F1200 X60.161 Y113.675 E216.0629
G0 F3600 X60.783 Y113.675
G1 F1200 X10.559 Y63.45 E219.58082
G0 F3600 X10.559 Y62.828
G1 F1200 X61.405 Y113.675 E223.14231
G0 F3600 X62.028 Y113.675
G1 F1200 X10.559 Y62.206 E226.74739
G0 F3600 X10.559 Y61.584
G1 F1200 X62.65 Y113.675 E230.39605
G0 F3600 X63.272 Y113.675
G1 F1200 X10.559 Y60.961 E234.08831
G0 F3600 X10.559 Y60.339
G1 F1200 X63.894 Y113.675 E237.82413
G0 F3600 X64.517 Y113.675
G1 F1200 X10.559 Y59.717 E241.60356
G0 F3600 X10.559 Y59.095
G1 F1200 X65.139 Y113.675 E245.42655
G0 F3600 X65.761 Y113.675
G1 F1200 X10.559 Y58.472 E249.29315
G0 F3600 X10.559 Y57.85
G1 F1200 X66.383 Y113.675 E253.20332
G0 F3600 X67.006 Y113.675
G1 F1200 X10.559 Y57.228 E257.15708
G0 F3600 X10.559 Y56.606
G1 F1200 X67.628 Y113.675 E261.15442
G0 F3600 X68.25 Y113.675
G1 F1200 X10.559 Y55.983 E265.19535
G0 F3600 X10.559 Y55.361
G1 F1200 X68.872 Y113.675 E269.27986
G0 F3600 X69.495 Y113.675
G1 F1200 X10.559 Y54.739 E273.40796
G0 F3600 X10.559 Y54.117
G1 F1200 X70.117 Y113.675 E277.57963
G0 F3600 X70.739 Y113.675
G1 F1200 X10.559 Y53.494 E281.79491
G0 F3600 X10.559 Y52.872
G1 F1200 X71.361 Y113.675 E286.05375
G0 F3600 X71.984 Y113.675
G1 F1200 X10.559 Y52.25 E290.3562
G0 F3600 X10.559 Y51.627
G1 F1200 X72.606 Y113.675 E294.70224
G0 F3600 X73.228 Y113.675
G1 F1200 X10.559 Y51.005 E299.09186
G0 F3600 X10.559 Y50.383
G1 F1200 X73.85 Y113.675 E303.52504
G0 F3600 X74.473 Y113.675
G1 F1200 X10.559 Y49.761 E308.00183
G0 F3600 X10.559 Y49.138
G1 F1200 X75.095 Y113.675 E312.52221
G0 F3600 X75.717 Y113.675
G1 F1200 X10.559 Y48.516 E317.08617
G0 F3600 X10.559 Y47.894
G1 F1200 X76.339 Y113.675 E321.69369
G0 F3600 X76.962 Y113.675
G1 F1200 X10.559 Y47.272 E326.34481
G0 F3600 X10.559 Y46.649
G1 F1200 X77.584 Y113.675 E331.03954
G0 F3600 X78.206 Y113.675
G1 F1200 X10.559 Y46.027 E335.77783
G0 F3600 X10.559 Y45.405
G1 F1200 X78.828 Y113.675 E340.55969
G0 F3600 X79.451 Y113.675
G1 F1200 X10.559 Y44.783 E345.38515
G0 F3600 X10.559 Y44.16
G1 F1200 X80.073 Y113.675 E350.25422
G0 F3600 X80.695 Y113.675
G1 F1200 X10.559 Y43.538 E355.16685
G0 F3600 X10.559 Y42.916
G1 F1200 X81.317 Y113.675 E360.12305
G0 F3600 X81.94 Y113.675
G1 F1200 X10.559 Y42.294 E365.12285
G0 F3600 X10.559 Y41.671
G1 F1200 X82.562 Y113.675 E370.16625
G0 F3600 X83.184 Y113.675
G1 F1200 X10.559 Y41.049 E375.25323
G0 F3600 X10.559 Y40.427
G1 F1200 X83.807 Y113.675 E380.3838
G0 F3600 X84.429 Y113.675
G1 F1200 X10.559 Y39.805 E385.55794
G0 F3600 X10.559 Y39.182
G1 F1200 X85.051 Y113.675 E390.77568
G0 F3600 X85.673 Y113.675
G1 F1200 X10.559 Y38.56 E396.03699
G0 F3600 X10.559 Y37.938
G1 F1200 X86.296 Y113.675 E401.34191
G0 F3600 X86.918 Y113.675
G1 F1200 X10.559 Y37.316 E406.69039
G0 F3600 X10.559 Y36.693
G1 F1200 X87.54 Y113.675 E412.08247
G0 F3600 X88.162 Y113.675
G1 F1200 X10.559 Y36.071 E417.51812
G0 F3600 X10.559 Y35.449
G1 F1200 X88.785 Y113.675 E422.99737
G0 F3600 X89.27 Y113.538
G1 F1200 X10.559 Y34.827 E428.5106
G0 F3600 X10.559 Y34.204
G1 F1200 X89.27 Y112.915 E434.02382
G0 F3600 X89.27 Y112.293
G1 F1200 X10.559 Y33.582 E439.53704
G0 F3600 X10.559 Y32.96
G1 F1200 X89.27 Y111.671 E445.05027
G0 F3600 X89.27 Y111.048
G1 F1200 X10.559 Y32.338 E450.56345
G0 F3600 X10.559 Y31.715
G1 F1200 X89.27 Y110.426 E456.07668
G0 F3600 X89.27 Y109.804
G1 F1200 X10.559 Y31.093 E461.5899
G0 F3600 X10.559 Y30.471
G1 F1200 X89.27 Y109.182 E467.10312
G0 F3600 X89.27 Y108.559
G1 F1200 X10.559 Y29.849 E472.61631
G0 F3600 X10.559 Y29.226
G1 F1200 X89.27 Y107.937 E478.12954
G0 F3600 X89.27 Y107.315
G1 F1200 X10.559 Y28.604 E483.64276
G0 F3600 X10.559 Y27.982
G1 F1200 X89.27 Y106.693 E489.15598
G0 F3600 X89.27 Y106.07
G1 F1200 X10.559 Y27.36 E494.66917
G0 F3600 X10.559 Y26.737
G1 F1200 X89.27 Y105.448 E500.18239
G0 F3600 X89.27 Y104.826
G1 F1200 X10.559 Y26.115 E505.69562
G0 F3600 X10.559 Y25.493
G1 F1200 X89.27 Y104.204 E511.20884
G0 F3600 X89.27 Y103.581
G1 F1200 X10.559 Y24.871 E516.72203
G0 F3600 X10.559 Y24.248
G1 F1200 X89.27 Y102.959 E522.23525
G0 F3600 X89.27 Y102.337
G1 F1200 X10.559 Y23.626 E527.74848
G0 F3600 X10.559 Y23.004
G1 F1200 X89.27 Y101.715 E533.2617
G0 F3600 X89.27 Y101.092
G1 F1200 X10.559 Y22.382 E538.77489
G0 F3600 X10.559 Y21.759
G1 F1200 X89.27 Y100.47 E544.28811
G0 F3600 X89.27 Y99.848
G1 F1200 X10.559 Y21.137 E549.80134
G0 F3600 X10.559 Y20.515
G1 F1200 X89.27 Y99.226 E555.31456
G0 F3600 X89.27 Y98.603
G1 F1200 X10.559 Y19.893 E560.82775
G0 F3600 X10.559 Y19.27
G1 F1200 X89.27 Y97.981 E566.34097
G0 F3600 X89.27 Y97.359
G1 F1200 X10.559 Y18.648 E571.85419
G0 F3600 X10.559 Y18.026
G1 F1200 X89.27 Y96.737 E577.36742
G0 F3600 X89.27 Y96.114
G1 F1200 X10.559 Y17.404 E582.88061
G0 F3600 X10.559 Y16.781
G1 F1200 X89.27 Y95.492 E588.39383
G0 F3600 X89.27 Y94.87
G1 F1200 X10.559 Y16.159 E593.90705
G0 F3600 X10.559 Y15.537
G1 F1200 X89.27 Y94.248 E599.42028
G0 F3600 X89.27 Y93.625
G1 F1200 X10.559 Y14.915 E604.93346
G0 F3600 X10.559 Y14.292
G1 F1200 X89.27 Y93.003 E610.44669
G0 F3600 X89.27 Y92.381
G1 F1200 X10.559 Y13.67 E615.95991
G0 F3600 X10.559 Y13.048
G1 F1200 X89.27 Y91.759 E621.47313
G0 F3600 X89.27 Y91.136
G1 F1200 X10.559 Y12.425 E626.98636
G0 F3600 X10.559 Y11.803
G1 F1200 X89.27 Y90.514 E632.49958
G0 F3600 X89.27 Y89.892
G1 F1200 X10.559 Y11.181 E638.0128
G0 F3600 X10.559 Y10.559
G1 F1200 X89.27 Y89.27 E643.52603
G0 F3600 X89.27 Y88.647
G1 F1200 X10.559 Y9.936 E649.03925
G0 F3600 X10.559 Y9.314
G1 F1200 X89.27 Y88.025 E654.55247
G0 F3600 X89.27 Y87.403
G1 F1200 X10.559 Y8.692 E660.0657
G0 F3600 X11.17 Y8.681
G1 F1200 X89.27 Y86.781 E665.53612
G0 F3600 X89.27 Y86.158
G1 F1200 X11.793 Y8.681 E670.96291
G0 F3600 X12.415 Y8.681
G1 F1200 X89.27 Y85.536 E676.34614
G0 F3600 X89.27 Y84.914
G1 F1200 X13.037 Y8.681 E681.68579
G0 F3600 X13.659 Y8.681
G1 F1200 X89.27 Y84.292 E686.98188
G0 F3600 X89.27 Y83.669
G1 F1200 X14.282 Y8.681 E692.23433
G0 F3600 X14.904 Y8.681
G1 F1200 X89.27 Y83.047 E697.44321
G0 F3600 X89.27 Y82.425
G1 F1200 X15.526 Y8.681 E702.60853
G0 F3600 X16.148 Y8.681
G1 F1200 X89.27 Y81.803 E707.73027
G0 F3600 X89.27 Y81.18
G1 F1200 X16.771 Y8.681 E712.80839
G0 F3600 X17.393 Y8.681
G1 F1200 X89.27 Y80.558 E717.84293
G0 F3600 X89.27 Y79.936
G1 F1200 X18.015 Y8.681 E722.83391
G0 F3600 X18.637 Y8.681
G1 F1200 X89.27 Y79.314 E727.78131
G0 F3600 X89.27 Y78.691
G1 F1200 X19.26 Y8.681 E732.68509
G0 F3600 X19.882 Y8.681
G1 F1200 X89.27 Y78.069 E737.54529
G0 F3600 X89.27 Y77.447
G1 F1200 X20.504 Y8.681 E742.36193
G0 F3600 X21.126 Y8.681
