;FLAVOR:Marlin
;TIME:16062
;Filament used: 8.03869m
;Layer height: 0.15
;MINX:6.238
;MINY:4.16
;MINZ:0.3
;MAXX:93.998
;MAXY:118.199
;MAXZ:12
;Generated with Cura_SteamEngine 5.3.0
M82 ;absolute extrusion mode
;MachineType:ENTINA TINA2
;FilamentType:PLA
;InfillDensity:30
;Extruder0Temperature:200

;(**** start.gcode for tina2****)
M203 Z15
M104 S150
G28 Z
G28 X Y; Home extruder
G1 X55 Y55 F1000
G29
M107 ; Turn off fan
G90 ; Absolute positioning
M82 ; Extruder in absolute mode
M109 S210
G92 E0 ; Reset extruder position
G1 X90 Y6 Z0.27 F2000
G1 X20 Y6 Z0.27 E15 F1000
G92 E0 ; Reset extruder position
M203 Z5
G92 E0
G92 E0
G1 F1680 E-3
;LAYER_COUNT:79
;LAYER:0
M107
G0 F3600 X7.75 Y5.835 Z0.3
;TYPE:SKIRT
G1 F1680 E0
G1 F1560 X8.114 Y5.481 E0.02515
G1 X8.528 Y5.189 E0.05024
G1 X9.247 Y4.85 E0.08961
G1 X9.952 Y4.657 E0.12581
G1 X10.554 Y4.6 E0.15576
G1 X89.683 Y4.599 E4.0749
G1 X90.189 Y4.639 E4.10004
G1 X90.786 Y4.784 E4.13047
G1 X91.35 Y5.019 E4.16073
G1 X91.787 Y5.278 E4.18589
G1 X92.196 Y5.579 E4.21104
G1 X92.64 Y6.034 E4.24253
G1 X92.991 Y6.534 E4.27279
G1 X93.293 Y7.158 E4.30712
G1 X93.488 Y7.811 E4.34088
G1 X93.56 Y8.487 E4.37455
G1 X93.556 Y113.856 E9.59332
G1 X93.544 Y114.583 E9.62933
G1 X93.495 Y115.088 E9.65446
G1 X93.368 Y115.579 E9.67958
G1 X93.166 Y116.044 E9.70469
G1 X92.893 Y116.471 E9.72979
G1 X92.556 Y116.851 E9.75494
G1 X92.164 Y117.172 E9.78004
G1 X91.726 Y117.429 E9.80519
G1 X91.254 Y117.613 E9.83028
G1 X90.758 Y117.721 E9.85542
G1 X90.096 Y117.758 E9.88826
G1 X10.571 Y117.759 E13.82702
G1 X9.873 Y117.75 E13.86159
G1 X9.368 Y117.703 E13.88671
G1 X8.877 Y117.578 E13.9118
G1 X8.411 Y117.377 E13.93694
G1 X7.983 Y117.106 E13.96203
G1 X7.602 Y116.771 E13.98716
G1 X7.279 Y116.38 E14.01228
G1 X7.022 Y115.943 E14.03739
G1 X6.836 Y115.471 E14.06251
G1 X6.726 Y114.976 E14.08763
G1 X6.687 Y114.509 E14.11084
G1 X6.686 Y9.982 E19.2879
G1 X6.678 Y9.299 E19.32173
G1 X6.68 Y8.381 E19.3672
G1 X6.721 Y7.875 E19.39234
G1 X6.841 Y7.383 E19.41743
G1 X7.066 Y6.845 E19.44631
G1 X7.447 Y6.241 E19.48168
G1 X7.75 Y5.835 E19.50677
G0 F3600 X7.418 Y5.544
G1 F1560 X7.86 Y5.121 E19.53707
G1 X8.303 Y4.808 E19.56394
G1 X9.091 Y4.437 E19.60707
G1 X9.875 Y4.222 E19.64734
G1 X10.554 Y4.16 E19.68111
G1 X89.718 Y4.16 E23.60198
G1 X90.293 Y4.211 E23.63057
G1 X90.89 Y4.356 E23.661
G1 X91.574 Y4.64 E23.69768
G1 X92.011 Y4.899 E23.72284
G1 X92.487 Y5.247 E23.75205
G1 X93 Y5.781 E23.78872
G1 X93.373 Y6.312 E23.82086
G1 X93.715 Y7.032 E23.86034
G1 X93.922 Y7.724 E23.89611
G1 X93.998 Y8.44 E23.93178
G1 X93.996 Y113.863 E29.15322
G1 X93.982 Y114.625 E29.19097
G1 X93.921 Y115.198 E29.21951
G1 X93.772 Y115.754 E29.24802
G1 X93.537 Y116.281 E29.27659
G1 X93.264 Y116.708 E29.3017
G1 X92.862 Y117.169 E29.33199
G1 X92.387 Y117.551 E29.36218
G1 X91.886 Y117.839 E29.3908
G1 X91.348 Y118.043 E29.4193
G1 X90.852 Y118.151 E29.44444
G1 X90.096 Y118.198 E29.48196
G1 X10.565 Y118.199 E33.42101
G1 X9.867 Y118.19 E33.45558
G1 X9.327 Y118.141 E33.48244
G1 X8.734 Y117.996 E33.51267
G1 X8.176 Y117.749 E33.5429
G1 X7.748 Y117.478 E33.56799
G1 X7.311 Y117.101 E33.59657
G1 X6.94 Y116.66 E33.62512
G1 X6.626 Y116.138 E33.65529
G1 X6.406 Y115.566 E33.68564
G1 X6.296 Y115.071 E33.71075
G1 X6.247 Y114.509 E33.7387
G1 X6.246 Y9.982 E38.91576
G1 X6.238 Y9.298 E38.94964
G1 X6.241 Y8.345 E38.99684
G1 X6.282 Y7.839 E39.02198
G1 X6.435 Y7.213 E39.0539
G1 X6.674 Y6.642 E39.08456
G1 X7.094 Y5.978 E39.12347
G1 X7.418 Y5.544 E39.1503
G1 F1680 E36.1503
;MESH:SD-1000-Top3D.stl
G0 F3600 X37.189 Y40.827
;TYPE:WALL-INNER
G1 F1680 E39.1503
G1 F1320 X37.82 Y40.792 E39.1816
G1 X38.095 Y40.731 E39.19555
G1 X38.464 Y40.567 E39.21555
G1 X38.759 Y40.324 E39.23448
G1 X39.035 Y39.916 E39.25888
G1 X39.176 Y39.467 E39.28219
G1 X39.227 Y38.898 E39.31048
G1 X39.138 Y38.235 E39.34361
G1 X38.993 Y37.9 E39.36169
G1 X38.754 Y37.59 E39.38108
G1 X38.344 Y37.32 E39.40539
G1 X37.947 Y37.194 E39.42602
G1 X37.19 Y37.129 E39.46365
G1 X37.189 Y40.827 E39.64681
G0 F3600 X36.749 Y41.267
;TYPE:WALL-OUTER
G1 F1320 X37.709 Y41.267 E39.69436
G1 X38.233 Y41.151 E39.72094
G1 X38.698 Y40.945 E39.74613
G1 X39.076 Y40.633 E39.7704
G1 X39.441 Y40.092 E39.80273
G1 X39.61 Y39.553 E39.8307
G1 X39.668 Y38.902 E39.86308
G1 X39.635 Y38.452 E39.88542
G1 X39.559 Y38.1 E39.90326
G1 X39.375 Y37.675 E39.9262
G1 X39.071 Y37.28 E39.95088
G1 X38.819 Y37.076 E39.96694
G1 X38.517 Y36.913 E39.98394
G1 X38.034 Y36.76 E40.00903
G1 X37.387 Y36.704 E40.0412
G1 X36.75 Y36.704 E40.07275
G1 X36.749 Y41.267 E40.29875
G1 F1680 E37.29875
G0 F3600 X37.499 Y40.61
;TYPE:SKIN
G1 F1680 E40.29875
G1 F1200 X37.388 Y40.5 E40.30649
G0 F3600 X37.388 Y39.877
G1 F1200 X38.043 Y40.532 E40.35236
G0 F3600 X38.45 Y40.317
G1 F1200 X37.388 Y39.255 E40.42675
G0 F3600 X37.388 Y38.633
G1 F1200 X38.745 Y39.99 E40.5218
G0 F3600 X38.938 Y39.56
G1 F1200 X37.388 Y38.011 E40.63033
G0 F3600 X37.388 Y37.388
G1 F1200 X39.015 Y39.015 E40.7443
G0 F3600 X38.949 Y38.327
G1 F1200 X38.064 Y37.442 E40.80628
G1 X37.994 Y37.372
G1 F1680 E37.80628
G0 F3600 X56.444 Y40.976
;TYPE:WALL-INNER
G1 F1680 E40.80628
G1 F976.1 X56.549 Y40.839 E40.81784
G1 F956.8 X56.709 Y40.28 E40.85757
G1 F917.5 X56.768 Y38.97 E40.95101
G1 F950.6 X56.739 Y37.856 E41.02765
G1 F1008.3 X56.661 Y37.417 E41.05656
G1 X56.471 Y36.971 E41.08799
G1 X56.427 Y36.995 E41.09124
G1 X56.279 Y37.29 E41.11264
G1 X56.174 Y37.723 E41.14153
G1 F950.6 X56.114 Y39.077 E41.23475
G1 F936.8 X56.13 Y39.967 E41.29687
G1 F976.1 X56.287 Y40.725 E41.34872
G1 X56.444 Y40.976 E41.36854
G0 F3600 X56.703 Y41.447
;TYPE:WALL-OUTER
G1 F1320 X56.909 Y41.252 E41.38259
G1 X57.029 Y41.043 E41.39453
G1 X57.211 Y40.41 E41.42715
G1 X57.313 Y38.973 E41.4985
G1 X57.244 Y37.777 E41.55784
G1 X57.153 Y37.282 E41.58277
G1 X56.972 Y36.796 E41.60845
G1 X56.828 Y36.597 E41.62062
G1 X56.659 Y36.48 E41.6308
G1 X56.334 Y36.464 E41.64691
G1 X56.095 Y36.6 E41.66053
G1 X55.972 Y36.748 E41.67007
G1 X55.797 Y37.121 E41.69047
G1 X55.671 Y37.645 E41.71716
G1 X55.57 Y39.07 E41.78792
G1 X55.615 Y40.032 E41.83562
G1 X55.792 Y40.889 E41.87896
G1 X55.922 Y41.168 E41.8942
G1 X56.099 Y41.384 E41.90804
G1 X56.332 Y41.503 E41.92099
G1 X56.438 Y41.514 E41.92627
G1 X56.703 Y41.447 E41.93981
G1 F1680 E38.93981
G0 F3600 X62.955 Y36.97
;TYPE:WALL-INNER
G1 F1680 E41.93981
G1 F1008.3 X62.888 Y37.023 E41.94535
G1 X62.763 Y37.29 E41.96446
G1 X62.66 Y37.722 E41.99326
G1 F950.6 X62.598 Y39.077 E42.08655
G1 F935.3 X62.615 Y39.966 E42.1487
G1 F974.5 X62.771 Y40.724 E42.20062
G1 X62.927 Y40.977 E42.22056
G1 X63.029 Y40.842 E42.23192
G1 F955.3 X63.193 Y40.279 E42.27205
G1 F916.1 X63.253 Y38.97 E42.36556
G1 F950.6 X63.223 Y37.838 E42.44345
G1 F1008.3 X63.145 Y37.418 E42.47114
G1 X62.955 Y36.97 E42.5027
G1 F1680 E39.5027
G0 F3600 X63.093 Y41.491
;TYPE:WALL-OUTER
G1 F1680 E42.5027
G1 F1320 X63.393 Y41.253 E42.52166
G1 X63.51 Y41.045 E42.53348
G1 X63.696 Y40.408 E42.56635
G1 X63.797 Y38.973 E42.6376
G1 X63.729 Y37.777 E42.69693
G1 X63.637 Y37.282 E42.72187
G1 X63.456 Y36.796 E42.74755
G1 X63.312 Y36.596 E42.75976
G1 X63.143 Y36.48 E42.76991
G1 X62.819 Y36.464 E42.78598
G1 X62.58 Y36.6 E42.7996
G1 X62.456 Y36.748 E42.80916
G1 X62.281 Y37.121 E42.82957
G1 X62.156 Y37.644 E42.8562
G1 X62.054 Y39.07 E42.92701
G1 X62.099 Y40.032 E42.97471
G1 X62.277 Y40.888 E43.01801
G1 X62.405 Y41.166 E43.03317
G1 X62.586 Y41.385 E43.04724
G1 X62.807 Y41.497 E43.05951
G1 X63.093 Y41.491 E43.07368
G1 F1680 E40.07368
G0 F3600 X69.441 Y36.969
;TYPE:WALL-INNER
G1 F1680 E43.07368
G1 F1010.1 X69.373 Y37.022 E43.07926
G1 X69.248 Y37.289 E43.09834
G1 X69.144 Y37.722 E43.12716
G1 F952.1 X69.083 Y39.077 E43.2203
G1 F936.8 X69.099 Y39.967 E43.28242
G1 F976.1 X69.256 Y40.725 E43.33427
G1 X69.412 Y40.977 E43.35412
G1 X69.518 Y40.839 E43.36577
G1 F956.8 X69.678 Y40.28 E43.4055
G1 F917.5 X69.737 Y38.97 E43.49894
G1 F952.1 X69.708 Y37.838 E43.57669
G1 F1010.1 X69.631 Y37.417 E43.60439
G1 X69.441 Y36.969 E43.63589
G1 F1680 E40.63589
G0 F3600 X69.577 Y41.491
;TYPE:WALL-OUTER
G1 F1680 E43.63589
G1 F1320 X69.878 Y41.251 E43.65496
G1 X69.998 Y41.043 E43.66685
G1 X70.18 Y40.41 E43.69947
G1 X70.282 Y38.973 E43.77082
G1 X70.213 Y37.777 E43.83016
G1 X70.122 Y37.282 E43.85508
G1 X69.941 Y36.796 E43.88077
G1 X69.797 Y36.596 E43.89298
G1 X69.628 Y36.48 E43.90313
G1 X69.304 Y36.464 E43.9192
G1 X69.063 Y36.601 E43.93293
G1 X68.941 Y36.748 E43.94239
G1 X68.766 Y37.121 E43.96279
G1 X68.641 Y37.644 E43.98943
G1 X68.539 Y39.07 E44.06024
G1 X68.584 Y40.032 E44.10793
G1 X68.762 Y40.888 E44.15124
G1 X68.89 Y41.167 E44.16644
G1 X69.07 Y41.385 E44.18044
G1 X69.292 Y41.496 E44.19274
G1 X69.577 Y41.491 E44.20685
G1 F1680 E41.20685
G0 F3600 X66.138 Y41.141
;TYPE:WALL-INNER
G1 F1680 E44.20685
G1 F1320 X66.005 Y41.571 E44.22915
G1 X65.57 Y42.389 E44.27503
G1 X65.084 Y42.942 E44.3115
G1 X64.506 Y43.349 E44.34651
G1 X63.771 Y43.631 E44.3855
G1 X62.881 Y43.731 E44.42986
G1 X62.292 Y43.688 E44.45911
G1 X61.811 Y43.589 E44.48343
G1 X61.187 Y43.331 E44.51687
G1 X60.614 Y42.906 E44.55221
G1 X60.224 Y42.451 E44.58189
G1 X59.862 Y41.8 E44.61878
G1 X59.653 Y41.138 E44.65316
G1 X59.521 Y41.572 E44.67563
G1 X59.085 Y42.388 E44.72145
G1 X58.6 Y42.942 E44.75792
G1 X58.003 Y43.362 E44.79407
G1 X57.295 Y43.63 E44.83157
G1 X56.396 Y43.731 E44.87638
G1 X55.79 Y43.685 E44.90648
G1 X55.35 Y43.593 E44.92874
G1 X54.703 Y43.33 E44.96333
G1 X54.146 Y42.916 E44.9977
G1 X53.743 Y42.459 E45.02788
G1 X53.38 Y41.804 E45.06497
G1 X53.089 Y40.888 E45.11257
G1 X52.922 Y39.167 E45.19821
G1 X52.964 Y38.233 E45.24452
G1 X53.057 Y37.503 E45.28097
G1 X53.324 Y36.509 E45.33194
G1 X53.8 Y35.593 E45.38307
G1 X54.307 Y35.028 E45.42067
G1 X54.891 Y34.615 E45.4561
G1 X55.626 Y34.335 E45.49505
G1 X56.513 Y34.234 E45.53927
G1 X57.125 Y34.274 E45.56965
G1 X57.731 Y34.419 E45.60051
G1 X58.343 Y34.72 E45.63429
G1 X58.838 Y35.137 E45.66634
G1 X59.215 Y35.617 E45.69657
G1 X59.541 Y36.249 E45.73179
G1 X59.716 Y36.854 E45.76299
G1 X59.841 Y36.445 E45.78417
G1 X60.278 Y35.602 E45.8312
G1 X60.792 Y35.021 E45.86962
G1 X61.388 Y34.607 E45.90556
G1 X62.119 Y34.334 E45.94421
G1 X63.021 Y34.231 E45.98917
G1 X63.63 Y34.277 E46.01942
G1 X64.204 Y34.419 E46.04871
G1 X64.827 Y34.719 E46.08296
G1 X65.323 Y35.138 E46.11511
G1 X65.703 Y35.619 E46.14547
G1 X66.034 Y36.282 E46.18218
G1 X66.2 Y36.853 E46.21163
G1 X66.325 Y36.445 E46.23276
G1 X66.761 Y35.605 E46.27964
G1 X67.281 Y35.019 E46.31844
G1 X67.891 Y34.598 E46.35515
G1 X68.61 Y34.336 E46.39305
G1 X69.51 Y34.231 E46.43793
G1 X70.089 Y34.273 E46.46668
G1 X70.717 Y34.426 E46.4987
G1 X71.313 Y34.72 E46.53161
G1 X71.808 Y35.138 E46.5637
G1 X72.187 Y35.621 E46.59411
G1 X72.506 Y36.25 E46.62904
G1 X72.77 Y37.159 E46.67592
G1 X72.926 Y38.911 E46.76304
G1 X72.882 Y39.836 E46.8089
G1 X72.793 Y40.502 E46.84218
G1 X72.527 Y41.494 E46.89305
G1 X72.055 Y42.388 E46.94312
G1 X71.56 Y42.948 E46.98014
G1 X70.977 Y43.358 E47.01544
G1 X70.267 Y43.628 E47.05306
G1 X69.4 Y43.73 E47.0963
G1 X68.817 Y43.692 E47.12524
G1 X68.301 Y43.588 E47.15131
G1 X67.673 Y43.332 E47.18489
G1 X67.099 Y42.906 E47.2203
G1 X66.709 Y42.451 E47.24998
G1 X66.347 Y41.799 E47.28692
G1 X66.138 Y41.141 E47.32111
G1 F1680 E44.32111
G0 F3600 X69.388 Y43.29
;TYPE:WALL-OUTER
G1 F1680 E47.32111
G1 F1320 X68.821 Y43.249 E47.34927
G1 X68.419 Y43.163 E47.36963
G1 X67.907 Y42.953 E47.39704
G1 X67.428 Y42.605 E47.42636
G1 X67.08 Y42.208 E47.45251
G1 X66.764 Y41.643 E47.48457
G1 X66.485 Y40.766 E47.53015
G1 F1332.1 X66.393 Y39.748 E47.58032
G1 F1406.3 X66.358 Y39.167 E47.60738
G1 F1481.6 X66.368 Y38.899 E47.61921
G1 F1399.5 X66.375 Y38.234 E47.65028
G1 F1323 X66.457 Y37.601 E47.68182
G1 F1320 X66.716 Y36.648 E47.73073
G1 X67.134 Y35.844 E47.77561
G1 X67.56 Y35.364 E47.8074
G1 X68.078 Y35.001 E47.83873
G1 X68.708 Y34.765 E47.87205
G1 X69.503 Y34.674 E47.91168
G1 X70.039 Y34.711 E47.93829
G1 X70.545 Y34.835 E47.96409
G1 X71.055 Y35.083 E47.99218
G1 X71.502 Y35.455 E48.02098
G1 X71.807 Y35.849 E48.04566
G1 X72.098 Y36.413 E48.07709
G1 X72.341 Y37.261 E48.12079
G1 X72.486 Y38.925 E48.20351
G1 X72.446 Y39.778 E48.24581
G1 X72.361 Y40.416 E48.27769
G1 X72.113 Y41.335 E48.32483
G1 X71.699 Y42.124 E48.36896
G1 X71.279 Y42.604 E48.40055
G1 X70.766 Y42.967 E48.43168
G1 X70.175 Y43.193 E48.46302
G1 X69.388 Y43.29 E48.50229
G1 F1680 E45.50229
G0 F3600 X62.884 Y43.291
G1 F1680 E48.50229
G1 F1320 X62.351 Y43.252 E48.52876
G1 X61.941 Y43.166 E48.54951
G1 X61.419 Y42.952 E48.57745
G1 X60.946 Y42.608 E48.60642
G1 X60.595 Y42.208 E48.63277
G1 X60.279 Y41.643 E48.66484
G1 X60.002 Y40.77 E48.7102
G1 F1329.1 X59.908 Y39.749 E48.76064
G1 F1406.3 X59.873 Y39.166 E48.78779
G1 F1399.5 X59.891 Y38.234 E48.83133
G1 F1323 X59.973 Y37.601 E48.86288
G1 F1320 X60.232 Y36.648 E48.91179
G1 X60.657 Y35.836 E48.95718
G1 X61.076 Y35.362 E48.98852
G1 X61.592 Y35.002 E49.01968
G1 X62.215 Y34.767 E49.05266
G1 X63.015 Y34.674 E49.09255
G1 X63.563 Y34.712 E49.11975
G1 X64.06 Y34.835 E49.14511
G1 X64.579 Y35.088 E49.17371
G1 X65.009 Y35.446 E49.20142
G1 X65.317 Y35.841 E49.22623
G1 X65.629 Y36.462 E49.26065
G1 X65.857 Y37.26 E49.30175
G1 F1323 X65.939 Y38.224 E49.34956
G1 F1399.5 X65.976 Y38.908 E49.38156
G1 F1485.4 X65.967 Y39.122 E49.39099
G1 F1409.7 X65.961 Y39.766 E49.42086
G1 F1332.1 X65.874 Y40.43 E49.45372
G1 F1320 X65.634 Y41.32 E49.49938
G1 X65.215 Y42.122 E49.54419
G1 X64.787 Y42.614 E49.57649
G1 X64.282 Y42.969 E49.60707
G1 X63.678 Y43.197 E49.63904
G1 X62.884 Y43.291 E49.67864
G1 F1680 E46.67864
G0 F3600 X56.417 Y43.29
G1 F1680 E49.67864
G1 F1320 X55.851 Y43.249 E49.70675
G1 X55.457 Y43.166 E49.72669
G1 X54.936 Y42.952 E49.75459
G1 X54.44 Y42.591 E49.78497
G1 X54.09 Y42.178 E49.81178
G1 X53.796 Y41.645 E49.84193
G1 X53.517 Y40.766 E49.88761
G1 X53.364 Y39.169 E49.96707
G1 X53.405 Y38.234 E50.01342
G1 X53.488 Y37.601 E50.04504
G1 X53.747 Y36.648 E50.09395
G1 X54.164 Y35.846 E50.13872
G1 X54.614 Y35.345 E50.17208
G1 X55.114 Y34.997 E50.20225
G1 X55.734 Y34.766 E50.23502
G1 X56.535 Y34.674 E50.27495
G1 X57.071 Y34.711 E50.30156
G1 X57.576 Y34.835 E50.32732
G1 X58.082 Y35.081 E50.35518
G1 X58.524 Y35.445 E50.38354
G1 X58.852 Y35.873 E50.41025
G1 X59.136 Y36.433 E50.44135
G1 X59.372 Y37.261 E50.48399
G1 F1323 X59.455 Y38.225 E50.53181
G1 F1402.9 X59.492 Y38.934 E50.56489
G1 F1489.2 X59.483 Y39.12 E50.57307
G1 F1409.7 X59.476 Y39.766 E50.60303
G1 F1332.1 X59.395 Y40.401 E50.63445
G1 F1320 X59.142 Y41.344 E50.6828
G1 X58.73 Y42.122 E50.7264
G1 X58.304 Y42.612 E50.75856
G1 X57.797 Y42.969 E50.78927
G1 X57.204 Y43.194 E50.82069
G1 X56.417 Y43.29 E50.85996
G1 F1680 E47.85996
G0 F3600 X49.349 Y37.237
G1 F1680 E50.85996
G1 F1320 X48.881 Y37.467 E50.88578
G1 X48.428 Y37.621 E50.90948
G1 X47.891 Y37.727 E50.93659
G1 X47.742 Y37.668 E50.94453
G1 X47.669 Y37.556 E50.95115
G1 X47.669 Y35.986 E51.02891
G1 X47.783 Y35.842 E51.03801
G1 X49.068 Y35.33 E51.10652
G1 X50.178 Y34.628 E51.17156
G1 X51.313 Y34.628 E51.22778
G1 X51.469 Y34.727 E51.23693
G1 X51.504 Y34.847 E51.24312
G1 X51.502 Y42.963 E51.64509
G1 X51.462 Y43.06 E51.65029
G1 X51.32 Y43.147 E51.65854
G1 X49.55 Y43.149 E51.7462
G1 X49.451 Y43.116 E51.75137
G1 X49.349 Y42.995 E51.75921
G1 X49.349 Y37.237 E52.0444
G1 F1680 E49.0444
G0 F3600 X42.883 Y40.749
G1 F1680 E52.0444
G1 F1320 X42.751 Y40.581 E52.05498
G1 F1087.6 X42.653 Y39.754 E52.10504
G1 F935.3 X42.66 Y39.289 E52.13755
G1 F1102.1 X42.822 Y39.145 E52.1504
G1 F1320 X42.967 Y39.091 E52.15807
G1 X45.987 Y39.091 E52.30764
G1 X46.121 Y39.146 E52.31482
G1 X46.195 Y39.258 E52.32147
G1 X46.191 Y40.571 E52.3865
G1 X46.122 Y40.697 E52.39361
G1 X46.009 Y40.751 E52.39982
G1 X42.883 Y40.749 E52.55464
